res/icons/ADD.svg

<?xml version="1.0" encoding="UTF-8" standalone="no"?>
<svg
   viewBox="0 0 24 24"
   version="1.1"
   id="svg8"
   sodipodi:docname="ADD.svg"
   inkscape:version="1.1.1 (3bf5ae0d25, 2021-09-20)"
   xmlns:inkscape="http://www.inkscape.org/namespaces/inkscape"
   xmlns:sodipodi="http://sodipodi.sourceforge.net/DTD/sodipodi-0.dtd"
   xmlns="http://www.w3.org/2000/svg"
   xmlns:svg="http://www.w3.org/2000/svg">
  <defs
     id="defs12" />
  <sodipodi:namedview
     id="namedview10"
     pagecolor="#ffffff"
     bordercolor="#666666"
     borderopacity="1.0"
     inkscape:pageshadow="2"
     inkscape:pageopacity="0.0"
     inkscape:pagecheckerboard="0"
     showgrid="false"
     inkscape:snap-object-midpoints="true"
     inkscape:snap-center="true"
     inkscape:snap-page="true"
     inkscape:zoom="33.833333"
     inkscape:cx="11.423645"
     inkscape:cy="13.019704"
     inkscape:window-width="1920"
     inkscape:window-height="1001"
     inkscape:window-x="-9"
     inkscape:window-y="-9"
     inkscape:window-maximized="1"
     inkscape:current-layer="svg8" />
  <path
     fill="none"
     d="M 0,0 H 24 V 24 H 0 Z"
     id="path2" />
  <path
     d="m 4,3 h 16 c 0.552285,0 1,0.4477153 1,1 v 16 c 0,0.552285 -0.447715,1 -1,1 H 4 C 3.4477153,21 3,20.552285 3,20 V 4 C 3,3.4477153 3.4477153,3 4,3 Z M 5,5 V 19 H 19 V 5 Z"
     id="path4"
     sodipodi:nodetypes="sssssssssccccc"
     style="fill:#37c871" />
  <path
     d="M 11,11 V 7.0000002 h 2 V 11 h 4 v 2 h -4 v 4 H 11 V 13 H 7.0000001 v -2 z"
     id="path856"
     style="fill:#37c871" />
</svg>

<svg xmlns="http://www.w3.org/2000/svg" viewBox="0 0 24 24">
    <g>
        <path fill="none" d="M0 0h24v24H0z"/>
        <path d="M4 3h16a1 1 0 0 1 1 1v16a1 1 0 0 1-1 1H4a1 1 0 0 1-1-1V4a1 1 0 0 1 1-1zm1 2v14h14V5H5zm6 6V7h2v4h4v2h-4v4h-2v-4H7v-2h4z"/>
    </g>
</svg>
